resources/icons/hicolor/scalable/actions/cm-offline-symbolic.svg

<?xml version="1.0" encoding="UTF-8"?>
<svg height="16px" viewBox="0 0 16 16" width="16px" xmlns="http://www.w3.org/2000/svg">
    <g fill="#2e3436">
        <path d="m 12 1 c -0.265625 0 -0.519531 0.105469 -0.707031 0.292969 c -0.390625 0.390625 -0.390625 1.023437 0 1.414062 l 1.292969 1.292969 h -7.585938 c -0.550781 0 -1 0.449219 -1 1 s 0.449219 1 1 1 h 7.585938 l -1.292969 1.292969 c -0.390625 0.390625 -0.390625 1.023437 0 1.414062 s 1.023437 0.390625 1.414062 0 l 3 -3 c 0.390625 -0.390625 0.390625 -1.023437 0 -1.414062 l -3 -3 c -0.1875 -0.1875 -0.441406 -0.292969 -0.707031 -0.292969 z m -8 6 c -0.257812 0 -0.511719 0.097656 -0.707031 0.292969 l -3 3 c -0.3906252 0.390625 -0.3906252 1.023437 0 1.414062 l 3 3 c 0.1875 0.1875 0.441406 0.292969 0.707031 0.292969 s 0.519531 -0.105469 0.707031 -0.292969 c 0.390625 -0.390625 0.390625 -1.023437 0 -1.414062 l -1.292969 -1.292969 h 5.585938 v -2 h -5.585938 l 1.292969 -1.292969 c 0.390625 -0.390625 0.390625 -1.023437 0 -1.414062 c -0.195312 -0.195313 -0.449219 -0.292969 -0.707031 -0.292969 z m 0 0" fill-opacity="0.34902"/>
        <path d="m 15 10 c 0.265625 0 0.519531 0.105469 0.707031 0.292969 c 0.390625 0.390625 0.390625 1.023437 0 1.414062 l -1.292969 1.292969 l 1.292969 1.292969 c 0.390625 0.390625 0.390625 1.023437 0 1.414062 s -1.023437 0.390625 -1.414062 0 l -1.292969 -1.292969 l -1.292969 1.292969 c -0.390625 0.390625 -1.023437 0.390625 -1.414062 0 s -0.390625 -1.023437 0 -1.414062 l 1.292969 -1.292969 l -1.292969 -1.292969 c -0.390625 -0.390625 -0.390625 -1.023437 0 -1.414062 c 0.1875 -0.1875 0.441406 -0.292969 0.707031 -0.292969 s 0.519531 0.105469 0.707031 0.292969 l 1.292969 1.292969 l 1.292969 -1.292969 c 0.1875 -0.1875 0.441406 -0.292969 0.707031 -0.292969 z m 0 0"/>
    </g>
</svg>

<svg width='16' height='16'
     xmlns:gpa='https://www.gtk.org/grappa'
     gpa:version='1'>
  <path d='M12.00 1.00C11.73 1.00 11.48 1.11 11.29 1.29C10.90 1.68 10.90 2.32 11.29 2.71L12.59 4.00L5.00 4.00C4.45 4.00 4.00 4.45 4.00 5.00C4.00 5.55 4.45 6.00 5.00 6.00L12.59 6.00L11.29 7.29C10.90 7.68 10.90 8.32 11.29 8.71C11.68 9.10 12.32 9.10 12.71 8.71L15.71 5.71C16.10 5.32 16.10 4.68 15.71 4.29L12.71 1.29C12.52 1.11 12.27 1.00 12.00 1.00ZM4.00 7.00C3.74 7.00 3.49 7.10 3.29 7.29L0.29 10.29C-0.10 10.68 -0.10 11.32 0.29 11.71L3.29 14.71C3.48 14.89 3.73 15.00 4.00 15.00C4.27 15.00 4.52 14.89 4.71 14.71C5.10 14.32 5.10 13.68 4.71 13.29L3.41 12.00L9.00 12.00L9.00 10.00L3.41 10.00L4.71 8.71C5.10 8.32 5.10 7.68 4.71 7.29C4.51 7.10 4.26 7.00 4.00 7.00ZM4.00 7.00'
stroke='none'
fill='rgb(0,0,0)'
gpa:fill='foreground'/>
  <path d='M15.00 10.00C15.27 10.00 15.52 10.11 15.71 10.29C16.10 10.68 16.10 11.32 15.71 11.71L14.41 13.00L15.71 14.29C16.10 14.68 16.10 15.32 15.71 15.71C15.32 16.10 14.68 16.10 14.29 15.71L13.00 14.41L11.71 15.71C11.32 16.10 10.68 16.10 10.29 15.71C9.90 15.32 9.90 14.68 10.29 14.29L11.59 13.00L10.29 11.71C9.90 11.32 9.90 10.68 10.29 10.29C10.48 10.11 10.73 10.00 11.00 10.00C11.27 10.00 11.52 10.11 11.71 10.29L13.00 11.59L14.29 10.29C14.48 10.11 14.73 10.00 15.00 10.00ZM15.00 10.00'
stroke='none'
fill='rgb(0,0,0)'
gpa:fill='foreground'/>
</svg>
